bjbnd/IK_Solver_v2/Results.csv
step,x,y,z,J1,J2,J3,J4,J5,J6,J7
0,0.400197563032923,-3.3305170847674516e-05,0.703599180923741,-0.010613163696336306,0.005673966657958406,2.5444437451708134e-14,-90.0039535994786,-0.001102364590882448,89.99991273554475,0.0
0.02,0.4002264406995014,-0.00010890066335183341,0.7035319275810864,-0.021224991406301883,0.01134851473240636,2.5444437451708134e-14,-90.0079075633064,-0.002204298554278687,89.99982542373054,0.0
0.04,0.40068749494434286,9.589296611377468e-05,0.7031320802982993,0.013443273582637383,0.07449760244259335,-0.008320337645290858,-90.00191706889353,0.013171179149366736,89.94387739720247,0.018078434305232247
0.06,0.4020676332953861,0.0007134686420006615,0.7019295092894949,0.11745950598642524,0.26394495168949667,-0.033281350581239766,-89.98394562412538,0.05930163407821149,89.77602116571676,0.07231768776018983
0.08,0.40435771898818307,0.001753359960786524,0.6999151509491789,0.29082777470197313,0.5796907127833825,-0.07488303880784672,-89.9539933310196,0.1361900513890513,89.49624452794316,0.16272171090436263
0.1,0.40754232299889365,0.0032312880741421058,0.6970739798238046,0.5335416836024691,1.0217350560159575,-0.13312540232500994,-89.9120603363234,0.2438362735013808,89.10454754276287,0.2892905037379796
0.12,0.41159943323475984,0.005168907966983022,0.6933851331010649,0.845612875958754,1.5900782377753988,-0.20800844113285666,-89.85814680236928,0.38224019015038174,88.60093027890284,0.4520240662610154
0.14,0.4165000516168769,0.007593447760509535,0.68882209244607,1.2270343326988966,2.2847205361506804,-0.299532155231336,-89.79225283512339,0.5514018472583275,87.985392792119,0.6509223984734953
0.16,0.42220768679026704,0.010537234269310882,0.6833529299465299,1.6777996562039217,3.105662107458991,-0.4076965446204479,-89.71437836490435,0.7513215440208876,87.25793512185892,0.8859855003754449
0.18,0.4286777501327007,0.014037090137788272,0.676940623477919,2.1979240118074914,4.052902738360122,-0.532501609300167,-89.62452300764592,0.9819998524923979,86.4185573068399,1.1572133719668132
0.2,0.43585686837985715,0.01813357814522605,0.6695434413922413,2.7874039224450433,5.126441549259743,-0.6739473492705187,-89.52268597986792,1.243437471233197,85.46725941424944,1.4646060132477021
0.22,0.4436821370101705,0.02287006348331401,0.6611153902752399,3.4462459022714067,6.326276859411035,-0.832033764531503,-89.40886614808122,1.5356349360773374,84.40404160216625,1.8081634242180606
0.24,0.45208035023787074,0.028291572069474025,0.6516067205645546,4.174470647250878,7.6524063420780495,-1.0067608550830944,-89.28306224132521,1.8585923515400846,83.22890416271876,2.18788560487794
0.26,0.46096724690088725,0.03444344328704423,0.6409644974441371,4.972072378093802,9.104827447668793,-1.1981286209253694,-89.14527313470205,2.2123093156402924,81.94184751000265,2.6037725552273394
0.28,0.4702468040891172,0.04136979070858608,0.6291332599965145,5.839059539861156,10.68353791361684,-1.4061370620582514,-88.99549803886711,2.596785119891824,80.54287213382378,3.0558242752662084
0.3,0.47981060299260236,0.049111777758708966,0.6160557954044995,6.775436736947119,12.388536044852977,-1.630786178481766,-88.83373650533964,3.012019082245668,79.03197852233191,3.544040764994624
0.32,0.48953729612789143,0.05770569811039235,0.6016740444231179,7.781205912127289,14.219820687807983,-1.8720759701959135,-88.65998827811156,3.4580108134039165,77.40916710567721,4.068422024412585
0.34,0.4992922205217684,0.06718084039745383,0.5859301412209555,8.856350320462694,16.177390978341926,-2.1300064372006933,-88.4742531009565,3.934760311823339,75.67443823222895,4.628968053520092
0.36,0.5088026713127953,0.07741557065309371,0.5690014073000803,9.985465257958145,18.23318077488601,-2.4008796516537148,-88.27919352753753,4.435434242997574,73.85265771869054,5.2176439926256455
0.38,0.5175714048913415,0.08793747329823065,0.5516272273305476,11.118470639953227,20.295977595607265,-2.6726773480673214,-88.08346392213781,4.937822136511353,72.02464402503813,5.808334791936715
0.4,0.5255481683323271,0.09867009766926965,0.5338845226404926,12.251493672879956,22.35876528971465,-2.9444750444809533,-87.88772997350502,5.440211319055066,70.19663100550241,6.399026030196797
0.42,0.5327188205727804,0.1095707042455766,0.5157936683676075,13.384548413089094,24.42154390905011,-3.21627274089456,-87.69199153973743,5.94260193965322,68.36861984347077,6.989717268456904
0.44,0.5390716189696168,0.12059593025746206,0.4973755646745609,14.517599126909866,26.48431331866584,-3.488070437308217,-87.49624842317792,6.444994407872076,66.54061036908887,7.5804085067170375
0.46,0.5445972585291048,0.13170191720282903,0.47865161340444756,15.650662429855874,28.547073305711873,-3.759868133721849,-87.30050039614314,6.947389052123217,64.71260242837289,8.171099744977145
0.48,0.5492889042664985,0.14284444274115288,0.45964369483075995,16.78373767717151,30.609823593704263,-4.031665830135481,-87.10474722199966,7.449786151226458,62.88459586983263,8.761790983237253
0.5,0.5531422159277607,0.15397905649066973,0.44037414410900105,17.9168296848202,32.67256388225873,-4.303463526549113,-86.90898866319334,7.952185909463279,61.05659054287816,9.352482221497361
0.52,0.5561553650477297,0.16506121818482175,0.42086572708606446,19.049928121869396,34.735293854208734,-4.57526122296277,-86.71322448694214,8.454588492091942,59.228586297194326,9.943173459757494
0.54,0.5583290441956863,0.17604643770461043,0.40114161521942193,20.183036329371536,36.79801320141782,-4.8470589193763765,-86.51745446593851,8.956994007456798,57.40058297933609,10.533864698017627
0.56,0.5596664684461558,0.18689041599396178,0.3812253594455257,21.316154180769527,38.860721622749914,-5.1188566157899835,-86.32167838020375,9.459402499424435,55.57258043316725,11.124555936277735
0.58,0.5601733689611154,0.1975491865270141,0.36114086290031727,22.44928144044958,40.92341882991748,-5.390654312203666,-86.12589601725865,9.961813973788605,53.744578499643666,11.715247174537842
0.6,0.559857978637532,0.2079792567712738,0.34091235244016965,23.58243403695002,42.98610455965421,-5.662452008617298,-85.9301071713875,10.46422842883878,51.91657701795436,12.30593841279795
0.62,0.5587310099019469,0.2181377488258259,0.3205643489428885,24.71557895940634,45.048778537548856,-5.93424970503093,-85.73431164696063,10.966645719834633,50.0885758190325,12.896629651058058
0.64,0.5568056243196107,0.22798253957541878,0.3001216363952789,25.848732410925496,47.11144053613207,-6.206047401444536,-85.53850925342269,11.46906573282895,48.26057473612389,13.487320889318191
0.66,0.5540973944253146,0.23747239875401568,0.27960922978634095,26.981894154936736,49.174090337858296,-6.477845097858168,-85.34269980869043,11.971488313033651,46.432573598354885,14.078012127578324
0.68,0.5506373453285408,0.2465369049911522,0.2591223100344954,28.111210528100273,51.22971200959067,-6.748718312311241,-85.14754919569826,12.47220470293327,44.610788566843226,14.666694650915538
0.7,0.5466547987990968,0.2547681664230306,0.23959619701140744,29.18658436504783,53.18710147070862,-7.006648779315995,-84.96171638777315,12.94900287870653,42.876033196369626,15.22725472638373
0.72,0.5423389652972648,0.2620858822955704,0.22133349015734383,30.192586928028657,55.01819746721764,-7.247938571030143,-84.78786665713835,13.395043267107994,41.25319041284915,15.751651787957972
0.74,0.5378232192762171,0.26854357341763874,0.20434954995260532,31.129201123808325,56.723001910623914,-7.472587687453657,-84.62600113138446,13.810323793461002,39.74226562409159,16.239884079843073
0.76,0.5332273664732382,0.27419964784269607,0.18865315573235947,31.996442516216668,58.301516699531426,-7.680596128586539,-84.47612090206252,14.194844111325777,38.343258851354506,16.691951602038937
0.78,0.5286581009444025,0.2791152663847046,0.17424766552041848,32.79431022013157,59.753743611087465,-7.871963894428763,-84.33822701017995,14.548603895093157,37.0561701464048,17.107854354545555
0.8,0.524209619558355,0.2833524547798451,0.16113210507678344,33.52280317737706,61.079684300952266,-8.046690984980406,-84.2123204371637,14.871602898603962,35.88099958516907,17.487592337362834
0.82,0.5199643429473008,0.28697245375046376,0.14930217929280123,34.18193004261547,62.27934030178607,-8.204777400241415,-84.09840209738518,15.163840977019419,34.817747261939765,17.831165550490898
0.84,0.5159936986169262,0.29003429409543674,0.13875120088205856,34.77166571290306,63.35271298795495,-8.346223140211768,-83.99647283389173,15.425317916053501,33.866413279158756,18.138573993929647
0.86,0.5123589273840585,0.2925935814997674,0.12947093287976,35.292019111159384,64.29980361632649,-8.47102820489146,-83.90653341068449,15.656033654027237,33.026997743643264,18.409817667679125
0.88,0.50911188047249,0.2947014728756995,0.12145234274280026,35.74300958730892,65.12061330744211,-8.579192594280572,-83.8285845095742,15.855988240768824,32.29950076294722,18.64489657173924
0.9,0.5062957793448937,0.29640382621412753,0.11468626686930591,36.124624385758565,65.81514301437925,-8.670716308379026,-83.76262672838726,16.02518161958195,31.68392243998926,18.84381070611001
0.92,0.503945915042346,0.297740506262028,0.1091639851283703,36.436854083970005,66.38339354533338,-8.745599347186873,-83.70866057688787,16.163613735919462,31.18026286715667,19.006560070791487
0.94,0.5020902684200256,0.2987448287914388,0.10487770552746944,36.67970325712907,66.82536557010464,-8.803841710704088,-83.66668647427511,16.271284621221252,30.788522124225825,19.133144665783597
0.96,0.500750036319244,0.2994431281988107,0.10182095948366718,36.853175266216276,67.14105960933227,-8.84544339893067,-83.63670474812318,16.348194319735295,30.508700276680557,19.223564491086393
0.98,0.4999400520396168,0.2998544354336783,0.09998890832582513,36.95726176631409,67.33047602718554,-8.870404411866566,-83.61871563356392,16.394342794996884,30.34079737255925,19.277819546699767
1.0,0.4996690914721745,0.2999902558003731,0.09937856166910863,36.99196689362814,67.39361504786537,-8.878724749511909,-83.61271927160591,16.40973007873903,30.284813440853856,19.295909832623774
